public/images/apply.svg

<?xml version="1.0" encoding="UTF-8"?>
<svg xmlns="http://www.w3.org/2000/svg" width="48" height="48" viewBox="0 0 48 48" fill="none">
  <rect width="48" height="48" rx="24" fill="#E6F7FE"></rect>
  <g clip-path="url(#clip0_10798_5811)">
    <path d="M27.0107 16.5205H16.3193C15.8252 16.5205 15.3984 16.6965 15.0391 17.0483C14.6797 17.4002 14.5 17.8307 14.5 18.3398V33.6582C14.5 34.1673 14.6797 34.5978 15.0391 34.9497C15.3984 35.3016 15.8252 35.4775 16.3193 35.4775H27.0107C27.5049 35.4775 27.9316 35.3016 28.291 34.9497C28.6504 34.5978 28.8301 34.1673 28.8301 33.6582V18.3398C28.8301 17.8307 28.6504 17.4002 28.291 17.0483C27.9316 16.6965 27.5049 16.5205 27.0107 16.5205ZM27.5498 33.6582C27.5498 33.8079 27.4974 33.9352 27.3926 34.04C27.2878 34.1449 27.1605 34.1973 27.0107 34.1973H16.3193C16.1696 34.1973 16.0423 34.1449 15.9375 34.04C15.8327 33.9352 15.7803 33.8079 15.7803 33.6582V18.3398C15.7803 18.1901 15.8327 18.0591 15.9375 17.9468C16.0423 17.8345 16.1696 17.7783 16.3193 17.7783H27.0107C27.1605 17.7783 27.2878 17.8345 27.3926 17.9468C27.4974 18.0591 27.5498 18.1901 27.5498 18.3398V33.6582ZM31.0986 12.5H20.4072C19.9131 12.5 19.4863 12.6759 19.127 13.0278C18.7676 13.3797 18.5879 13.8102 18.5879 14.3193C18.5879 14.499 18.6515 14.6488 18.7788 14.7686C18.9061 14.8883 19.0596 14.9482 19.2393 14.9482C19.404 14.9482 19.55 14.8883 19.6772 14.7686C19.8045 14.6488 19.8682 14.499 19.8682 14.3193C19.8682 14.1696 19.9206 14.0423 20.0254 13.9375C20.1302 13.8327 20.2575 13.7803 20.4072 13.7803H31.0986C31.2484 13.7803 31.3757 13.8327 31.4805 13.9375C31.5853 14.0423 31.6377 14.1696 31.6377 14.3193V29.6377C31.6377 29.7874 31.5853 29.9185 31.4805 30.0308C31.3757 30.1431 31.2484 30.1992 31.0986 30.1992C30.9189 30.1992 30.7655 30.2591 30.6382 30.3789C30.5109 30.4987 30.4473 30.6484 30.4473 30.8281C30.4473 31.0078 30.5109 31.1576 30.6382 31.2773C30.7655 31.3971 30.9189 31.457 31.0986 31.457C31.5928 31.457 32.0195 31.2811 32.3789 30.9292C32.7383 30.5773 32.918 30.1468 32.918 29.6377V14.3193C32.918 13.8102 32.7383 13.3797 32.3789 13.0278C32.0195 12.6759 31.5928 12.5 31.0986 12.5Z" fill="#511374"></path>
  </g>
  <defs>
    <clipPath id="clip0_10798_5811">
      <rect width="23" height="23" fill="white" transform="matrix(1 0 0 -1 14.5 35.5)"></rect>
    </clipPath>
  </defs>
</svg>

<svg id="Layer_1" data-name="Layer 1" xmlns="http://www.w3.org/2000/svg" xmlns:xlink="http://www.w3.org/1999/xlink" viewBox="0 0 48 48"><defs><style>.cls-1{fill:none;}.cls-2{fill:#e6f7fe;}.cls-3{clip-path:url(#clip-path);}.cls-4{fill:#af2022;}</style><clipPath id="clip-path"><rect class="cls-1" x="14.5" y="12.5" width="23" height="23"/></clipPath></defs><path class="cls-2" d="M24,0h0A24,24,0,0,1,48,24h0A24,24,0,0,1,24,48h0A24,24,0,0,1,0,24H0A24,24,0,0,1,24,0Z"/><g class="cls-3"><path class="cls-4" d="M27,16.52H16.32a1.81,1.81,0,0,0-1.28.53,1.73,1.73,0,0,0-.54,1.29V33.66A1.75,1.75,0,0,0,15,35a1.81,1.81,0,0,0,1.28.53H27A1.79,1.79,0,0,0,28.29,35a1.73,1.73,0,0,0,.54-1.29V18.34a1.73,1.73,0,0,0-.54-1.29A1.79,1.79,0,0,0,27,16.52Zm.54,17.14a.47.47,0,0,1-.16.38.55.55,0,0,1-.38.16H16.32a.55.55,0,0,1-.38-.16.47.47,0,0,1-.16-.38V18.34a.55.55,0,0,1,.16-.39.46.46,0,0,1,.38-.17H27a.46.46,0,0,1,.38.17.55.55,0,0,1,.16.39ZM31.1,12.5H20.41a1.81,1.81,0,0,0-1.28.53,1.73,1.73,0,0,0-.54,1.29.55.55,0,0,0,.19.45.65.65,0,0,0,.46.18.67.67,0,0,0,.44-.18.64.64,0,0,0,.19-.45.55.55,0,0,1,.54-.54H31.1a.55.55,0,0,1,.54.54V29.64a.55.55,0,0,1-.16.39.5.5,0,0,1-.38.17.65.65,0,0,0-.46.18.63.63,0,0,0,0,.89h0a.65.65,0,0,0,.46.18,1.81,1.81,0,0,0,1.28-.53,1.73,1.73,0,0,0,.54-1.29V14.32A1.72,1.72,0,0,0,32.38,13,1.78,1.78,0,0,0,31.1,12.5Z"/></g></svg>
